resources/svg/school.svg

<svg width="15" height="15" viewBox="0 0 15 15" fill="none" xmlns="http://www.w3.org/2000/svg">
<path d="M7.5 8C7.22386 8 7 8.22386 7 8.5C7 8.77614 7.22386 9 7.5 9C7.77614 9 8 8.77614 8 8.5C8 8.22386 7.77614 8 7.5 8Z" fill="black"/>
<path fill-rule="evenodd" clip-rule="evenodd" d="M12 6.19098L8 4.19098V3H11V0H7V4.19098L3 6.19098V8H1V14H0V15H6V11H9V15H15V14H14V8H12V6.19098ZM13 14V9H12V14H13ZM3 14H2V9H3V14ZM6 8.5C6 7.67157 6.67157 7 7.5 7C8.32843 7 9 7.67157 9 8.5C9 9.32843 8.32843 10 7.5 10C6.67157 10 6 9.32843 6 8.5Z" fill="black"/>
<path d="M8 15V12H7V15H8Z" fill="black"/>
</svg>

<svg viewBox="0 0 15 15" fill="none" xmlns="http://www.w3.org/2000/svg" fill="currentColor"><path d="M7.5 8a.5.5 0 100 1 .5.5 0 000-1z" fill="currentColor"/><path fill-rule="evenodd" clip-rule="evenodd" d="M12 6.191l-4-2V3h3V0H7v4.191l-4 2V8H1v6H0v1h6v-4h3v4h6v-1h-1V8h-2V6.191zM13 14V9h-1v5h1zM3 14H2V9h1v5zm3-5.5a1.5 1.5 0 113 0 1.5 1.5 0 01-3 0z" fill="currentColor"/><path d="M8 15v-3H7v3h1z" fill="currentColor"/></svg>
